images/logo-long.svg

<svg width="940" height="53" viewBox="0 0 940 53" fill="none" xmlns="http://www.w3.org/2000/svg">
<path d="M79.52 35.36C84.08 35.36 86.6 32.93 88.04 30.44L84.38 28.67C83.54 30.32 81.74 31.58 79.52 31.58C76.04 31.58 73.4 28.79 73.4 25.01C73.4 21.23 76.04 18.44 79.52 18.44C81.74 18.44 83.54 19.73 84.38 21.35L88.04 19.55C86.63 17.06 84.08 14.66 79.52 14.66C73.67 14.66 69.02 18.86 69.02 25.01C69.02 31.16 73.67 35.36 79.52 35.36ZM112.536 35H116.826V14.99H112.536V22.85H103.086V14.99H98.8257V35H103.086V26.6H112.536V35ZM129.019 35H133.279V14.99H129.019V35ZM159.301 35H163.411V14.99H159.151V27.95L149.881 14.99H145.501V35H149.761V21.56L159.301 35ZM189.617 35H194.267L186.557 14.99H181.217L173.477 35H178.157L179.417 31.55H188.357L189.617 35ZM183.887 18.68L187.187 27.86H180.557L183.887 18.68ZM202.932 23.33C204.762 22.01 206.022 20 206.022 17.75C206.022 15.8 204.732 14.69 203.322 14.69C202.062 14.69 200.982 15.77 200.982 17.09C200.982 18.35 201.882 19.25 203.022 19.25C203.232 19.25 203.502 19.19 203.592 19.13C203.352 20.21 202.242 21.47 201.282 21.98L202.932 23.33ZM216.069 32.18C217.959 34.07 220.719 35.36 224.559 35.36C229.959 35.36 232.569 32.6 232.569 28.94C232.569 24.5 228.369 23.51 225.069 22.76C222.759 22.22 221.079 21.8 221.079 20.45C221.079 19.25 222.099 18.41 224.019 18.41C225.969 18.41 228.129 19.1 229.749 20.6L232.119 17.48C230.139 15.65 227.499 14.69 224.319 14.69C219.609 14.69 216.729 17.39 216.729 20.72C216.729 25.19 220.929 26.09 224.199 26.84C226.509 27.38 228.249 27.89 228.249 29.39C228.249 30.53 227.109 31.64 224.769 31.64C222.009 31.64 219.819 30.41 218.409 28.94L216.069 32.18ZM269.153 35.36C273.713 35.36 276.233 32.93 277.673 30.44L274.013 28.67C273.173 30.32 271.373 31.58 269.153 31.58C265.673 31.58 263.033 28.79 263.033 25.01C263.033 21.23 265.673 18.44 269.153 18.44C271.373 18.44 273.173 19.73 274.013 21.35L277.673 19.55C276.263 17.06 273.713 14.66 269.153 14.66C263.303 14.66 258.653 18.86 258.653 25.01C258.653 31.16 263.303 35.36 269.153 35.36ZM302.169 35H306.459V14.99H302.169V22.85H292.719V14.99H288.459V35H292.719V26.6H302.169V35ZM318.652 35H322.912V14.99H318.652V35ZM335.134 35H347.854V31.25H339.394V14.99H335.134V35ZM359.087 35H366.977C373.247 35 377.597 31.04 377.597 25.01C377.597 18.98 373.247 14.99 366.977 14.99H359.087V35ZM363.347 31.25V18.74H366.977C371.087 18.74 373.247 21.47 373.247 25.01C373.247 28.4 370.937 31.25 366.977 31.25H363.347ZM400.181 35H405.071L400.571 27.38C402.731 26.87 404.951 24.98 404.951 21.44C404.951 17.72 402.401 14.99 398.231 14.99H388.871V35H393.131V27.83H396.251L400.181 35ZM400.601 21.41C400.601 23.09 399.311 24.17 397.601 24.17H393.131V18.65H397.601C399.311 18.65 400.601 19.73 400.601 21.41ZM416.398 35H430.558V31.31H420.658V26.66H430.348V23H420.658V18.65H430.558V14.99H416.398V35ZM455.938 35H460.048V14.99H455.788V27.95L446.518 14.99H442.138V35H446.398V21.56L455.938 35ZM488.169 35H492.429V14.99H488.169V35ZM518.452 35H522.562V14.99H518.302V27.95L509.032 14.99H504.652V35H508.912V21.56L518.452 35ZM539.377 35H543.667V18.74H549.487V14.99H533.527V18.74H539.377V35ZM560.468 35H574.628V31.31H564.728V26.66H574.418V23H564.728V18.65H574.628V14.99H560.468V35ZM597.519 35H602.409L597.909 27.38C600.069 26.87 602.289 24.98 602.289 21.44C602.289 17.72 599.739 14.99 595.569 14.99H586.209V35H590.469V27.83H593.589L597.519 35ZM597.939 21.41C597.939 23.09 596.649 24.17 594.939 24.17H590.469V18.65H594.939C596.649 18.65 597.939 19.73 597.939 21.41ZM627.536 35H631.646V14.99H627.386V27.95L618.116 14.99H613.736V35H617.996V21.56L627.536 35ZM657.851 35H662.501L654.791 14.99H649.451L641.711 35H646.391L647.651 31.55H656.591L657.851 35ZM652.121 18.68L655.421 27.86H648.791L652.121 18.68ZM675.286 35H679.576V18.74H685.396V14.99H669.436V18.74H675.286V35ZM696.376 35H700.636V14.99H696.376V35ZM711.899 25.01C711.899 31.04 716.309 35.36 722.339 35.36C728.399 35.36 732.809 31.04 732.809 25.01C732.809 18.98 728.399 14.66 722.339 14.66C716.309 14.66 711.899 18.98 711.899 25.01ZM728.429 25.01C728.429 28.73 726.029 31.58 722.339 31.58C718.649 31.58 716.279 28.73 716.279 25.01C716.279 21.26 718.649 18.44 722.339 18.44C726.029 18.44 728.429 21.26 728.429 25.01ZM757.848 35H761.958V14.99H757.698V27.95L748.428 14.99H744.048V35H748.308V21.56L757.848 35ZM788.164 35H792.814L785.104 14.99H779.764L772.024 35H776.704L777.964 31.55H786.904L788.164 35ZM782.434 18.68L785.734 27.86H779.104L782.434 18.68ZM802.912 35H815.632V31.25H807.172V14.99H802.912V35Z" fill="black"/>
<path fill-rule="evenodd" clip-rule="evenodd" d="M2.03846 26.5C2.03846 12.9903 12.9903 2.03846 26.5 2.03846C40.0097 2.03846 50.9615 12.9903 50.9615 26.5C50.9615 40.0097 40.0097 50.9615 26.5 50.9615C12.9903 50.9615 2.03846 40.0097 2.03846 26.5ZM26.5 0C11.8645 0 0 11.8645 0 26.5C0 41.1355 11.8645 53 26.5 53C41.1355 53 53 41.1355 53 26.5C53 11.8645 41.1355 0 26.5 0ZM14.7822 13.7598C14.5119 13.7598 14.2526 13.8672 14.0615 14.0583C13.8704 14.2495 13.763 14.5087 13.763 14.779V23.5444C13.763 24.1073 14.2193 24.5637 14.7822 24.5637H33.3322V22.5252H15.8014V15.7983H39.2437V13.7598H14.7822ZM38.9385 18.4402C38.7474 18.2491 38.4881 18.1417 38.2178 18.1417H19.6678L19.6678 20.1801H37.1986V26.9071H13.7562V28.9455L38.2178 28.9455C38.7807 28.9455 39.237 28.4892 39.237 27.9263V19.1609C39.237 18.8906 39.1296 18.6313 38.9385 18.4402ZM39.2437 31.2902L13.763 31.2902V33.3286L25.4841 33.3287V37.2017H13.763V39.2402L39.2437 39.2402V37.2017H27.5226L27.5226 33.3287H39.2437V31.2902Z" fill="#CD0000"/>
</svg>

<?xml version="1.0" encoding="utf-8"?>
<!-- Generator: Adobe Illustrator 26.0.2, SVG Export Plug-In . SVG Version: 6.00 Build 0)  -->
<svg version="1.1" id="Layer_1" xmlns="http://www.w3.org/2000/svg" xmlns:xlink="http://www.w3.org/1999/xlink" x="0px" y="0px"
	 viewBox="0 0 815.6 53" style="enable-background:new 0 0 815.6 53;" xml:space="preserve">
<style type="text/css">
	.st0{fill-rule:evenodd;clip-rule:evenodd;fill:#CD0000;}
</style>
<path d="M79.5,35.4c4.6,0,7.1-2.4,8.5-4.9l-3.7-1.8c-0.8,1.6-2.6,2.9-4.9,2.9c-3.5,0-6.1-2.8-6.1-6.6s2.6-6.6,6.1-6.6
	c2.2,0,4,1.3,4.9,2.9l3.7-1.8c-1.4-2.5-4-4.9-8.5-4.9C73.7,14.7,69,18.9,69,25S73.7,35.4,79.5,35.4z M112.5,35h4.3V15h-4.3v7.9h-9.5
	V15h-4.3v20h4.3v-8.4h9.5V35z M129,35h4.3V15H129V35z M159.3,35h4.1V15h-4.3v13l-9.3-13h-4.4v20h4.3V21.6L159.3,35z M189.6,35h4.6
	l-7.7-20h-5.3l-7.7,20h4.7l1.3-3.5h8.9L189.6,35z M183.9,18.7l3.3,9.2h-6.6L183.9,18.7z M202.9,23.3c1.8-1.3,3.1-3.3,3.1-5.6
	c0-1.9-1.3-3.1-2.7-3.1c-1.3,0-2.3,1.1-2.3,2.4c0,1.3,0.9,2.2,2,2.2c0.2,0,0.5-0.1,0.6-0.1c-0.2,1.1-1.3,2.3-2.3,2.9L202.9,23.3z
	 M216.1,32.2c1.9,1.9,4.6,3.2,8.5,3.2c5.4,0,8-2.8,8-6.4c0-4.4-4.2-5.4-7.5-6.2c-2.3-0.5-4-1-4-2.3c0-1.2,1-2,2.9-2
	c1.9,0,4.1,0.7,5.7,2.2l2.4-3.1c-2-1.8-4.6-2.8-7.8-2.8c-4.7,0-7.6,2.7-7.6,6c0,4.5,4.2,5.4,7.5,6.1c2.3,0.5,4,1,4,2.5
	c0,1.1-1.1,2.2-3.5,2.2c-2.8,0-4.9-1.2-6.4-2.7L216.1,32.2z M269.2,35.4c4.6,0,7.1-2.4,8.5-4.9l-3.7-1.8c-0.8,1.6-2.6,2.9-4.9,2.9
	c-3.5,0-6.1-2.8-6.1-6.6s2.6-6.6,6.1-6.6c2.2,0,4,1.3,4.9,2.9l3.7-1.8c-1.4-2.5-4-4.9-8.5-4.9c-5.9,0-10.5,4.2-10.5,10.4
	S263.3,35.4,269.2,35.4z M302.2,35h4.3V15h-4.3v7.9h-9.5V15h-4.3v20h4.3v-8.4h9.5V35z M318.7,35h4.3V15h-4.3V35z M335.1,35h12.7
	v-3.8h-8.5V15h-4.3V35z M359.1,35h7.9c6.3,0,10.6-4,10.6-10s-4.3-10-10.6-10h-7.9V35z M363.3,31.2V18.7h3.6c4.1,0,6.3,2.7,6.3,6.3
	c0,3.4-2.3,6.2-6.3,6.2H363.3z M400.2,35h4.9l-4.5-7.6c2.2-0.5,4.4-2.4,4.4-5.9c0-3.7-2.5-6.5-6.7-6.5h-9.4v20h4.3v-7.2h3.1
	L400.2,35z M400.6,21.4c0,1.7-1.3,2.8-3,2.8h-4.5v-5.5h4.5C399.3,18.6,400.6,19.7,400.6,21.4z M416.4,35h14.2v-3.7h-9.9v-4.6h9.7V23
	h-9.7v-4.4h9.9V15h-14.2V35z M455.9,35h4.1V15h-4.3v13l-9.3-13h-4.4v20h4.3V21.6L455.9,35z M488.2,35h4.3V15h-4.3V35z M518.5,35h4.1
	V15h-4.3v13L509,15h-4.4v20h4.3V21.6L518.5,35z M539.4,35h4.3V18.7h5.8V15h-16v3.8h5.9V35z M560.5,35h14.2v-3.7h-9.9v-4.6h9.7V23
	h-9.7v-4.4h9.9V15h-14.2V35z M597.5,35h4.9l-4.5-7.6c2.2-0.5,4.4-2.4,4.4-5.9c0-3.7-2.5-6.5-6.7-6.5h-9.4v20h4.3v-7.2h3.1L597.5,35z
	 M597.9,21.4c0,1.7-1.3,2.8-3,2.8h-4.5v-5.5h4.5C596.6,18.6,597.9,19.7,597.9,21.4z M627.5,35h4.1V15h-4.3v13l-9.3-13h-4.4v20h4.3
	V21.6L627.5,35z M657.9,35h4.6l-7.7-20h-5.3l-7.7,20h4.7l1.3-3.5h8.9L657.9,35z M652.1,18.7l3.3,9.2h-6.6L652.1,18.7z M675.3,35h4.3
	V18.7h5.8V15h-16v3.8h5.9V35z M696.4,35h4.3V15h-4.3V35z M711.9,25c0,6,4.4,10.4,10.4,10.4c6.1,0,10.5-4.3,10.5-10.4
	s-4.4-10.4-10.5-10.4C716.3,14.7,711.9,19,711.9,25z M728.4,25c0,3.7-2.4,6.6-6.1,6.6s-6.1-2.9-6.1-6.6c0-3.8,2.4-6.6,6.1-6.6
	S728.4,21.3,728.4,25z M757.8,35h4.1V15h-4.3v13l-9.3-13H744v20h4.3V21.6L757.8,35z M788.2,35h4.7l-7.7-20h-5.3L772,35h4.7l1.3-3.5
	h8.9L788.2,35z M782.4,18.7l3.3,9.2h-6.6L782.4,18.7z M802.9,35h12.7v-3.8h-8.5V15h-4.3V35z"/>
<path class="st0" d="M2,26.5C2,13,13,2,26.5,2S51,13,51,26.5S40,51,26.5,51S2,40,2,26.5z M26.5,0C11.9,0,0,11.9,0,26.5
	S11.9,53,26.5,53S53,41.1,53,26.5S41.1,0,26.5,0z M14.8,13.8c-0.3,0-0.5,0.1-0.7,0.3c-0.2,0.2-0.3,0.5-0.3,0.7v8.8c0,0.6,0.5,1,1,1
	h18.5v-2H15.8v-6.7h23.4v-2H14.8z M38.9,18.4c-0.2-0.2-0.5-0.3-0.7-0.3H19.7v2h17.5v6.7H13.8v2h24.5c0.6,0,1-0.5,1-1v-8.8
	C39.2,18.9,39.1,18.6,38.9,18.4z M39.2,31.3H13.8v2l11.7,0v3.9H13.8v2h25.5v-2H27.5v-3.9h11.7V31.3z"/>
</svg>
